X:165
T:Connie O'Connell's
T:Michael Dwyer's
T:Restless Boy, The
R:jig
C:Michael Dwyer (1942-1997)
D:Matt Molloy & Sean Keane: Contentment is Wealth
D:Dervish: The Boys of Sligo
Z:id:hn-jig-165
M:6/8
K:G
BGG ADD | BdB BAG | BGG ADD | GAG GED |
BGG ADD | BAB ABc | dge f2d |1 cAF G2A :|2 cAF G2F ||
|: GBd ~g3 | fed cAF | GBd ~g3 | faf ~g3 |
faf g2e | fed cAG | ~B3 BAG | BdB cAF :|
|: G2B ~B2d | cAA dcA | GBB BAG | BdB cAF |
GBB ~B2d | cAA ABc | dge f2d |1 cAF G2F :|2 cAF G2A ||
P:Variations
|: BGG Add | B/c/dB BAG | BGG AFD | GAG GED |
BGG Add | BdB ABc | dge fed |1 cAF G2A :|2 cAF G2D ||
|: GBd g2e | fed cAF | GBd ~g3 | f/g/af g2e |
f/g/af gfe |1 fed cAG | ~B3 BAG | B/c/dB cBA :|
[2 fed ^cde | ~f3 ge^c | ded dcA ||
|: GBB ~B2d | cAA dcA | GBB BAG | BdB cBA |
GBB ~B2d | cAA ABc | dge f2d |1 cAF G2D :|2 cAF G2A ||

